img/icon-mail.svg

<svg width="16" height="16" viewBox="0 0 16 16" fill="none" xmlns="http://www.w3.org/2000/svg">
<path d="M14.0908 5.65088C13.7507 5.65088 13.4409 5.56852 13.1616 5.40381C12.8823 5.23551 12.6585 5.01172 12.4902 4.73242C12.3255 4.44954 12.2432 4.13981 12.2432 3.80322C12.2432 3.46663 12.3255 3.15869 12.4902 2.87939C12.6585 2.59652 12.8823 2.37272 13.1616 2.20801C13.4409 2.03971 13.7507 1.95557 14.0908 1.95557C14.4274 1.95557 14.7354 2.03971 15.0146 2.20801C15.2975 2.37272 15.5213 2.59652 15.686 2.87939C15.8543 3.15869 15.9385 3.46663 15.9385 3.80322C15.9385 4.13981 15.8543 4.44954 15.686 4.73242C15.5213 5.01172 15.2975 5.23551 15.0146 5.40381C14.7354 5.56852 14.4274 5.65088 14.0908 5.65088Z" fill="#FF5454"/>
<path d="M3.17139 12.4023C2.58057 12.4023 2.12939 12.2484 1.81787 11.9404C1.50635 11.6325 1.35059 11.1849 1.35059 10.5977V4.65723C1.35059 4.06999 1.50098 3.6224 1.80176 3.31445C2.10254 3.00651 2.51969 2.85254 3.05322 2.85254H11.6362C11.5646 3.03158 11.5163 3.21777 11.4912 3.41113C11.4697 3.60449 11.4715 3.79427 11.4966 3.98047H3.19287C2.96012 3.98047 2.7793 4.04313 2.65039 4.16846C2.52507 4.29378 2.4624 4.47461 2.4624 4.71094V10.5332C2.4624 10.7767 2.52507 10.9611 2.65039 11.0864C2.7793 11.2118 2.96012 11.2744 3.19287 11.2744H12.8018C13.0345 11.2744 13.2135 11.2118 13.3389 11.0864C13.4678 10.9611 13.5322 10.7785 13.5322 10.5386V6.36523C13.6182 6.38672 13.7077 6.40283 13.8008 6.41357C13.8975 6.42432 13.9924 6.42969 14.0854 6.42969C14.1821 6.42969 14.277 6.42432 14.3701 6.41357C14.4632 6.40283 14.5545 6.38672 14.644 6.36523V10.5977C14.644 11.1849 14.4937 11.6325 14.1929 11.9404C13.8921 12.2484 13.4749 12.4023 12.9414 12.4023H3.17139ZM11.7275 4.94727C11.7956 5.10124 11.8815 5.24447 11.9854 5.37695C12.0928 5.50944 12.2091 5.63118 12.3345 5.74219L9.06348 8.68555C8.8916 8.8431 8.71794 8.95768 8.54248 9.0293C8.37061 9.10091 8.18799 9.13672 7.99463 9.13672C7.80127 9.13672 7.61865 9.10091 7.44678 9.0293C7.2749 8.95768 7.10303 8.8431 6.93115 8.68555L1.93066 4.18994L2.63965 3.48096L7.53271 7.896C7.68311 8.02848 7.83708 8.09473 7.99463 8.09473C8.15576 8.09473 8.30973 8.02848 8.45654 7.896L11.7275 4.94727ZM2.73633 11.5698L2.02734 10.8555L5.80859 7.07422L6.52832 7.77246L2.73633 11.5698ZM13.2637 11.5698L9.46631 7.77246L10.186 7.07422L13.9727 10.8608L13.2637 11.5698Z" fill="#222222"/>
</svg>

<svg width="16" height="16" fill="none" xmlns="http://www.w3.org/2000/svg"><path d="M14.09 5.65c-.34 0-.65-.081-.928-.246a1.944 1.944 0 0 1-.672-.672 1.814 1.814 0 0 1-.247-.929c0-.336.082-.644.247-.924.168-.282.392-.506.672-.671.279-.168.589-.252.929-.252.336 0 .644.084.924.252.282.165.506.389.671.671.168.28.252.588.252.924 0 .337-.084.647-.252.93-.165.279-.389.503-.671.67-.28.166-.588.248-.924.248z" fill="#FF5454"/><path d="M3.171 12.402c-.59 0-1.042-.154-1.353-.462-.312-.307-.467-.755-.467-1.342v-5.94c0-.588.15-1.036.45-1.344.302-.307.719-.461 1.252-.461h8.583c-.071.179-.12.365-.145.558-.021.193-.02.383.006.57H3.193c-.233 0-.414.062-.543.187-.125.126-.188.307-.188.543v5.822c0 .244.063.428.188.553.13.126.31.188.543.188h9.609c.232 0 .412-.062.537-.188.129-.125.193-.308.193-.547V6.365a2.1 2.1 0 0 0 .269.049 2.575 2.575 0 0 0 .57 0c.092-.011.184-.027.273-.049v4.233c0 .587-.15 1.034-.451 1.342-.3.308-.718.462-1.252.462h-9.77zm8.556-7.455c.069.154.155.297.258.43.108.132.224.254.35.365L9.063 8.686a1.771 1.771 0 0 1-.52.343 1.41 1.41 0 0 1-.548.108 1.41 1.41 0 0 1-.548-.108 1.798 1.798 0 0 1-.516-.343l-5-4.496.709-.709 4.893 4.415c.15.132.304.199.462.199a.684.684 0 0 0 .462-.199l3.27-2.949zm-8.99 6.623l-.71-.715 3.782-3.78.72.697-3.793 3.798zm10.527 0L9.466 7.772l.72-.698 3.787 3.787-.71.709z" fill="#222"/></svg>
